assets/icons/24px/outline/arrow-thick-left-24px.svg

<svg width="24" height="24" viewBox="0 0 24 24" fill="none" xmlns="http://www.w3.org/2000/svg">
<path d="M4.82843 9.17157L6.24264 7.75736C7.10973 6.89027 7.54328 6.45672 8.09459 6.22836C8.6459 6 9.25903 6 10.4853 6L19.7268 6C20.702 6 21.1897 6 21.3211 6.29867C21.4524 6.59734 21.1229 6.9568 20.4639 7.67573L18.9777 9.2971C17.8013 10.5804 17.2131 11.222 17.2131 12C17.2131 12.778 17.8013 13.4196 18.9777 14.7029L20.4639 16.3243C21.1229 17.0432 21.4524 17.4027 21.3211 17.7013C21.1897 18 20.702 18 19.7268 18L10.4853 18C9.25903 18 8.6459 18 8.09459 17.7716C7.54328 17.5433 7.10973 17.1097 6.24264 16.2426L4.82843 14.8284C3.49509 13.4951 2.82843 12.8284 2.82843 12C2.82843 11.1716 3.49509 10.5049 4.82843 9.17157Z" stroke="white" stroke-width="2" stroke-linecap="round" stroke-linejoin="round"/>
</svg>

<svg width="24" height="24" fill="none" xmlns="http://www.w3.org/2000/svg"><path d="M4.828 9.172l1.415-1.415c.867-.867 1.3-1.3 1.852-1.529C8.645 6 9.259 6 10.485 6h9.242c.975 0 1.463 0 1.594.299.131.298-.198.658-.857 1.377l-1.486 1.621C17.8 10.58 17.213 11.222 17.213 12c0 .778.588 1.42 1.765 2.703l1.486 1.621c.659.72.988 1.079.857 1.377-.131.299-.619.299-1.594.299h-9.242c-1.226 0-1.84 0-2.39-.228-.552-.229-.985-.662-1.852-1.53l-1.415-1.414c-1.333-1.333-2-2-2-2.828 0-.828.667-1.495 2-2.828z" stroke="#fff" stroke-width="2" stroke-linecap="round" stroke-linejoin="round"/></svg>
